X:1
T:Durban, 87.87 D
T:Durban, 87.87 D
T:Willliam Howard Doane, 1880
T:Public Domain Courtesy of the Cyber Hymnal™
C:Willliam Howard Doane, 1880
Z:Public Domain
Z:Courtesy of the Cyber Hymnal™
%%score ( 1 2 ) ( 3 4 )
L:1/8
Q:1/4=107
M:4/4
K:G
V:1 treble 
V:2 treble 
V:3 bass 
V:4 bass 
V:1
 [B,D]2 [B,D]2 [DG]2 [DG]2 | (FG) (AF) [DG]2 [DG]2 | [GB]2 [GB]2 [Bd]2 [Bd]2 | %3
 [Ac]2 [GB]2 [FA]3 z | [B,D]2 [B,D]2 [DG]2 [DG]2 | (FG) (AF) [DG]2 [GB]2 | %6
 [FA]2 [FA]2 [Fd]2 [Fd]2 | [G^c]2 (Bc) [Fd]2 z2 | [Fd]3 [Ac] [GB]2 [DG]2 | [DA]2 D2 (GA) [GB]2 | %10
 [Ac]3 [Ac] [GB]2 [GB]2 | [FA]2 [Fd]2 [Fd]2 z2 | [Gd]3 [Ac] [GB]2 [DG]2 | [DA]2 D2 (GA) [GB]2 | %14
 [Ac]3 [Ac] [GB]2 [EA]2 | [DG]2 [DF]2 [DG]4 |] %16
V:2
 x8 | D2 D2 x4 | x8 | x8 | x8 | D2 D2 x4 | x8 | x2 G2 x4 | x8 | x2 D2 D2 x2 | x8 | x8 | x8 | %13
 x2 D2 D2 x2 | x8 | x8 |] %16
V:3
 [G,,G,]2 [G,,G,]2 [B,,G,]2 [B,,G,]2 | (A,B,) (CA,) [G,B,]2 [G,B,]2 | [G,D]2 [G,D]2 [G,D]2 [G,D]2 | %3
 [F,D]2 [G,D]2 [D,D]3 z | [G,,G,]2 [G,,G,]2 [B,,G,]2 [B,,G,]2 | (A,B,) (CA,) [G,B,]2 [G,D]2 | %6
 [A,D]2 [A,D]2 [A,,A,]2 [A,,A,]2 | [A,,A,]2 [A,,A,]2 [D,A,]2 z2 | [D,A,]3 [D,D] [G,D]2 [G,B,]2 | %9
 [D,C]2 [F,C]2 (B,C) [G,D]2 | [F,D]3 [F,D] [G,D]2 [G,D]2 | [D,D]2 [D,A,]2 [D,A,]2 z2 | %12
 [G,B,]3 [G,D] [G,D]2 [G,B,]2 | [D,C]2 [F,C]2 (B,C) [G,D]2 | [F,D]3 [F,D] [G,D]2 [C,C]2 | %15
 [D,B,]2 [D,C]2 [G,,B,]4 |] %16
V:4
 x8 | D,2 D,2 x4 | x8 | x8 | x8 | D,2 D,2 x4 | x8 | x8 | x8 | x4 G,2 x2 | x8 | x8 | x8 | %13
 x4 G,2 x2 | x8 | x8 |] %16

